X: 1
T:Mary Had a Little Lamb
C:Traditional
M:4/4
L:1/4
Q:1/4=150
V:1
V:2
K:C
% abc lyrics transcription from clareliu,elainegn,srinidhi
V:1
E' D' C' D' |e E' E'2 |
V:2
E D C D | E E E2|
w: Mar-y had a lit-tle    lamb,
V:1
dD'd2| eG'g2 |
V:2
DD D2 | E G G2|
w:lit-tle lamb, lit-tle lamb,
V:1
E' d c d| e E' E' e|
V:2
E D C D | E E E E |
w: Mar-y had a lit-tle lamb its
V:1
 D'd e d| c4 :|
V:2
 D D E D | C4 :|
w:fleece was white as snow.
